X: 6731
T: Champaign
R: reel
M: 4/4
K: Bdorian
fB~B2 BAFA|BABc A2 ce|fc~c2 acec|A3 B cAce|
fB~B2 BAFA|BABc A3 B|AFEC EFAB|cefe cBce:|
fb~b2 feef|aA~A2 A2 ce|fb~b2 feef|aAcA B2 ce|
fb~b2 fa~a2|ef~f2 ecBc|ABce a2 gb|afec cBce:|

